X:1
T:BWV 858 - Prelude
T:BWV 858 - Prelude
T:J.S. Bach
C:J.S. Bach
%%score { 1 | 2 }
L:1/8
Q:1/4=65
M:12/16
K:F#
V:1 treble nm="Piano" snm="Pno."
V:2 bass 
V:1
"^\n\n" !1!F/!2!A/!4!c/ A/F/.c/ !3!c3- | c/!2!A/!1!B !4!c/!3!A !5!d/!2!G !4!A/!2!F/- | %2
 F/B/E B/D B/!1!C/ !2!E/!3!G/!5!B/ | !4!A/!2!F/!5!^B !1!F/!3!c F/d !1!G/!4!e/- | %4
 e/g/c d/^B/ c/e/.c/ c/e/4d/4c/- | c/a/c d/^B/ c/!4!e/!5!g/ e/c/.g/ | T!2!g2- g/ g/- g/e/f g/e/- | %7
 e/!5!a/!2!d e/^^c/ !5!f/!2!A/!1!B !4!^c/!3!A/- | A/!5!d/!2!G !4!A/!2!F !5!B/=E !3!F/D/ | %9
 !4!G/^^C/D C/G !1!E/!3!B !2!G/!5!e/- | e/E/F !3!A/!5!d !1!E/!2!G A/.!5!^^c/ | %11
 T!2!d2- d/ d/- d/f/a/ f/d/.!5!^^g/ | T!2!^^g2- g/ g/- g/a/!5!^b/ !1!e/!4!f/!3!d/ | %13
 !2!c/!5!e/!2!A ^B/^^G/ A/c/.A/ A/c/4^B/4A/- | A/f/A ^B/^^G/ !2!A/!3!c/!5!e/ c/A/.^^f/ | %15
 T!2!^^f2- f/ f/- f/!5!a/d/ c/B/!2!A/ | !3!B/d/!2!G A/^^F/ G/B/.G/ G/B/4A/4G/- | %17
 G/=e/G A/^^F/ !2!G/!3!B/!5!d/ B/G/.^e/ | T!2!e2- e/ e/- e/!1!c/e/ g/e/g/ | b3- b/g/a b/g/- | %20
 g/e/f g/e/ !5!f/!2!A/!1!B !4!c/!3!A/- | A/d/G !4!A/!2!F !1!E/!4!B !2!G/!5!d/- | %22
 d/!1!B/g !4!e/B !2!G/!5!c !4!A/F/- | F/D/B !3!G/!1!E/ !5!F3- | %24
 F/!2!A,/!1!B, !4!C/!2!A, !5!D/!2!G, !4!A,/!2!F,/ |"^" !5!!1!B,3- !1!B,/!3!E/!5!G/ E/B,/G/ | %26
 !1!=A,/!2!C/!4!F/ !1!B,/!2!E/!4!G/ !1!C/!2!F/!4!=A/ !1!=D/!2!G/!4!B/ | %27
 !1!E/!2!B/!4!=d !2!B/!5!e !1!=d/!3!g !2!e/!5!b/ | %28
[Q:1/4=60]"^\n" a/c/!3!f !4!g/!2!e/[Q:1/4=55] !3!f/!1!A/.!3!f/ f/a/4g/4f/- | %29
[Q:1/4=50] f/G/!4!f !5!g/!3!e/[Q:1/4=40] !5!f/c/A/ F3/2 |] %30
V:2
 z3 !5!F,/!3!A,/!1!C/ A,/F,/.!1!D/ | !2!D3/2C3/2 !1!B,3/2A,3/2 | G,3/2F,3/2 !1!E,3/2!5!C,3/2 | %3
 !3!F,3/2G,3/2 A,3/2!2!^B,3/2 | !1!C3/2G,3/2 !2!A,3/2E,3/2 | !3!F,3/2G,3/2 C,3/2 z3/2 | %6
 !5!C,/!3!E,/!1!G,/ E,/C,/.!1!A,/ !2!A,3/2G,3/2 | F,3/2E,3/2 D,3/2C,3/2 | %8
 B,,3/2A,,3/2 G,,3/2F,,3/2 | E,,3/2!2!D,3/2 !3!^^C,3/2A,,3/2 | !3!D,3/2!2!F,3/2 !1!G,3/2!2!A,3/2 | %11
 D,/F,/!1!A,/ F,/D,/.!1!^B,/ P!3!B,3- | B,/!2!D/!5!F/ !3!D/^B,/.!1!F/ !2!F/!1!E/D/ C/D/E/ | %13
 !3!A,3/2!5!E,3/2 !2!F,3/2!4!C,3/2 | D,3/2!1!E,3/2 A,,3/2 z3/2 | %15
 D,/^^F,/A,/ F,/D,/.!1!C/ !2!C3/2^^F,3/2 | !2!G,3/2!4!D,3/2 !1!=E,3/2!4!B,,3/2 | %17
 C,3/2D,3/2 G,,3/2 z3/2 | C,/E,/G,/ E,/C,/.!1!B,/ !2!B,3/2- B,/G,/B,/ | %19
 !1!E/!2!G/!1!E/ !2!C/E/C/ F,3/2!3!B,3/2 | !2!^B,3/2!1!C3/2 !3!D,3/2C,3/2 | %21
 !1!B,,3/2!4!A,,3/2 G,,3/2!2!F,3/2 | !1!E,3/2!3!C,3/2 !1!F,3/2!4!A,,3/2 | %23
 B,,3/2C,3/2 F,,/A,,/C,/ A,,/F,,/.D,/ | D,3/2C,3/2 !1!B,,3/2A,,3/2 | %25
 !3!G,,/!2!B,,/!1!D,/ !2!B,,/!3!G,,/.E,/ C,,3- | C,,3/2C,3/2 C,,3/2C,3/2 | %27
 C,,3/2!1!E,3/2 !2!G,3/2C3/2 | !3!F,3/2!5!C,3/2 !2!D,3/2!4!A,,3/2 | !3!B,,3/2C,3/2 F,,3 |] %30

